build/assets/images/svg/icons/delivery/money.svg

<svg width="44" height="44" viewBox="0 0 44 44" fill="none" xmlns="http://www.w3.org/2000/svg">
<rect width="44" height="44" rx="22" fill="#F4F7FB"/>
<path d="M15.0911 16.4164C14.5409 16.3682 14.0558 16.7752 14.0077 17.3254C13.9596 17.8756 14.3666 18.3606 14.9168 18.4087L16.9091 18.5831C17.4593 18.6312 17.9444 18.2242 17.9925 17.674C18.0406 17.1238 17.6336 16.6388 17.0835 16.5907L15.0911 16.4164Z" fill="#203686"/>
<path d="M26.0077 18.3254C26.0558 17.7752 26.5409 17.3682 27.0911 17.4164L29.0835 17.5907C29.6336 17.6388 30.0406 18.1238 29.9925 18.674C29.9444 19.2242 29.4593 19.6312 28.9091 19.5831L26.9168 19.4087C26.3666 19.3606 25.9596 18.8756 26.0077 18.3254Z" fill="#203686"/>
<path d="M15.0911 25.0035C14.5409 24.9554 14.0558 25.3624 14.0077 25.9126C13.9596 26.4627 14.3666 26.9478 14.9168 26.9959L16.9091 27.1702C17.4593 27.2184 17.9444 26.8114 17.9925 26.2612C18.0406 25.711 17.6336 25.226 17.0835 25.1778L15.0911 25.0035Z" fill="#203686"/>
<path d="M26.0077 27.3254C26.0558 26.7752 26.5409 26.3682 27.0911 26.4164L29.0835 26.5907C29.6336 26.6388 30.0406 27.1238 29.9925 27.674C29.9444 28.2242 29.4593 28.6312 28.9091 28.5831L26.9168 28.4087C26.3666 28.3606 25.9596 27.8756 26.0077 27.3254Z" fill="#203686"/>
<path fill-rule="evenodd" clip-rule="evenodd" d="M22 18.9997C23.6569 18.9997 25 20.3429 25 21.9997C25 23.6566 23.6569 24.9997 22 24.9997C20.3431 24.9997 19 23.6566 19 21.9997C19 20.3429 20.3431 18.9997 22 18.9997ZM23 21.9997C23 21.4474 22.5523 20.9997 22 20.9997C21.4477 20.9997 21 21.4474 21 21.9997C21 22.552 21.4477 22.9997 22 22.9997C22.5523 22.9997 23 22.552 23 21.9997Z" fill="#203686"/>
<path fill-rule="evenodd" clip-rule="evenodd" d="M15.2443 13.2413C12.9311 13.0428 11 14.8756 11 17.1683V25.1594C11 27.2845 12.655 29.0302 14.7482 29.2064C15.6063 29.2785 16.6588 29.373 17.9024 29.4949C18.1254 29.5168 18.621 29.6179 19.3377 29.7836C19.8089 29.8926 20.3392 30.0206 20.8964 30.1551C21.1591 30.2185 21.4286 30.2836 21.6998 30.3486C22.5391 30.5496 23.3972 30.7504 24.1357 30.9015C24.8428 31.0462 25.5356 31.1664 25.9958 31.1684C27.1394 31.1732 28.2579 31.1516 29.2151 31.1224C31.3562 31.0571 33 29.2882 33 27.1809V19.1925C33 16.8801 31.0564 15.0726 28.7836 15.134C27.931 15.1571 26.9751 15.1725 26.0042 15.1684C25.7734 15.1674 25.2712 15.0924 24.5366 14.9421C23.8335 14.7982 23.0034 14.6042 22.1657 14.4036C21.9033 14.3407 21.6395 14.2771 21.3793 14.2142L21.3782 14.214C20.8155 14.0781 20.269 13.9462 19.7883 13.8351C19.1081 13.6778 18.4759 13.5416 18.0976 13.5045C16.9986 13.3967 16.0468 13.3102 15.2443 13.2413ZM13 17.1683C13 16.0186 13.9566 15.1381 15.0733 15.234C15.8678 15.3022 16.8116 15.388 17.9024 15.4949C18.1254 15.5168 18.621 15.6179 19.3377 15.7836C19.8089 15.8926 20.3394 16.0207 20.8967 16.1552C21.1596 16.2187 21.4284 16.2835 21.6998 16.3486C22.5391 16.5496 23.3972 16.7504 24.1357 16.9015C24.8428 17.0462 25.5356 17.1664 25.9958 17.1684C26.9924 17.1726 27.9697 17.1567 28.8377 17.1333C30.0241 17.1012 31 18.0444 31 19.1925V27.1809C31 28.2423 30.1803 29.092 29.1541 29.1234C28.2131 29.1521 27.1187 29.1731 26.0042 29.1684C25.7734 29.1674 25.2712 29.0924 24.5366 28.9421C23.8335 28.7982 23.0034 28.6042 22.1657 28.4036C21.903 28.3407 21.639 28.2769 21.3784 28.214C20.8156 28.0782 20.269 27.9462 19.7883 27.8351C19.1081 27.6778 18.4759 27.5416 18.0976 27.5045C16.8447 27.3817 15.783 27.2864 14.9159 27.2134C13.8341 27.1224 13 26.2206 13 25.1594V17.1683Z" fill="#203686"/>
<path d="M15.0911 16.4164C14.5409 16.3682 14.0558 16.7752 14.0077 17.3254C13.9596 17.8756 14.3666 18.3606 14.9168 18.4087L16.9091 18.5831C17.4593 18.6312 17.9444 18.2242 17.9925 17.674C18.0406 17.1238 17.6336 16.6388 17.0835 16.5907L15.0911 16.4164Z" stroke="#F4F7FB" stroke-width="0.2"/>
<path d="M26.0077 18.3254C26.0558 17.7752 26.5409 17.3682 27.0911 17.4164L29.0835 17.5907C29.6336 17.6388 30.0406 18.1238 29.9925 18.674C29.9444 19.2242 29.4593 19.6312 28.9091 19.5831L26.9168 19.4087C26.3666 19.3606 25.9596 18.8756 26.0077 18.3254Z" stroke="#F4F7FB" stroke-width="0.2"/>
<path d="M15.0911 25.0035C14.5409 24.9554 14.0558 25.3624 14.0077 25.9126C13.9596 26.4627 14.3666 26.9478 14.9168 26.9959L16.9091 27.1702C17.4593 27.2184 17.9444 26.8114 17.9925 26.2612C18.0406 25.711 17.6336 25.226 17.0835 25.1778L15.0911 25.0035Z" stroke="#F4F7FB" stroke-width="0.2"/>
<path d="M26.0077 27.3254C26.0558 26.7752 26.5409 26.3682 27.0911 26.4164L29.0835 26.5907C29.6336 26.6388 30.0406 27.1238 29.9925 27.674C29.9444 28.2242 29.4593 28.6312 28.9091 28.5831L26.9168 28.4087C26.3666 28.3606 25.9596 27.8756 26.0077 27.3254Z" stroke="#F4F7FB" stroke-width="0.2"/>
<path fill-rule="evenodd" clip-rule="evenodd" d="M22 18.9997C23.6569 18.9997 25 20.3429 25 21.9997C25 23.6566 23.6569 24.9997 22 24.9997C20.3431 24.9997 19 23.6566 19 21.9997C19 20.3429 20.3431 18.9997 22 18.9997ZM23 21.9997C23 21.4474 22.5523 20.9997 22 20.9997C21.4477 20.9997 21 21.4474 21 21.9997C21 22.552 21.4477 22.9997 22 22.9997C22.5523 22.9997 23 22.552 23 21.9997Z" stroke="#F4F7FB" stroke-width="0.2"/>
<path fill-rule="evenodd" clip-rule="evenodd" d="M15.2443 13.2413C12.9311 13.0428 11 14.8756 11 17.1683V25.1594C11 27.2845 12.655 29.0302 14.7482 29.2064C15.6063 29.2785 16.6588 29.373 17.9024 29.4949C18.1254 29.5168 18.621 29.6179 19.3377 29.7836C19.8089 29.8926 20.3392 30.0206 20.8964 30.1551C21.1591 30.2185 21.4286 30.2836 21.6998 30.3486C22.5391 30.5496 23.3972 30.7504 24.1357 30.9015C24.8428 31.0462 25.5356 31.1664 25.9958 31.1684C27.1394 31.1732 28.2579 31.1516 29.2151 31.1224C31.3562 31.0571 33 29.2882 33 27.1809V19.1925C33 16.8801 31.0564 15.0726 28.7836 15.134C27.931 15.1571 26.9751 15.1725 26.0042 15.1684C25.7734 15.1674 25.2712 15.0924 24.5366 14.9421C23.8335 14.7982 23.0034 14.6042 22.1657 14.4036C21.9033 14.3407 21.6395 14.2771 21.3793 14.2142L21.3782 14.214C20.8155 14.0781 20.269 13.9462 19.7883 13.8351C19.1081 13.6778 18.4759 13.5416 18.0976 13.5045C16.9986 13.3967 16.0468 13.3102 15.2443 13.2413ZM13 17.1683C13 16.0186 13.9566 15.1381 15.0733 15.234C15.8678 15.3022 16.8116 15.388 17.9024 15.4949C18.1254 15.5168 18.621 15.6179 19.3377 15.7836C19.8089 15.8926 20.3394 16.0207 20.8967 16.1552C21.1596 16.2187 21.4284 16.2835 21.6998 16.3486C22.5391 16.5496 23.3972 16.7504 24.1357 16.9015C24.8428 17.0462 25.5356 17.1664 25.9958 17.1684C26.9924 17.1726 27.9697 17.1567 28.8377 17.1333C30.0241 17.1012 31 18.0444 31 19.1925V27.1809C31 28.2423 30.1803 29.092 29.1541 29.1234C28.2131 29.1521 27.1187 29.1731 26.0042 29.1684C25.7734 29.1674 25.2712 29.0924 24.5366 28.9421C23.8335 28.7982 23.0034 28.6042 22.1657 28.4036C21.903 28.3407 21.639 28.2769 21.3784 28.214C20.8156 28.0782 20.269 27.9462 19.7883 27.8351C19.1081 27.6778 18.4759 27.5416 18.0976 27.5045C16.8447 27.3817 15.783 27.2864 14.9159 27.2134C13.8341 27.1224 13 26.2206 13 25.1594V17.1683Z" stroke="#F4F7FB" stroke-width="0.2"/>
</svg>

<svg width="44" height="44" fill="none" xmlns="http://www.w3.org/2000/svg"><rect width="44" height="44" rx="22" fill="#F4F7FB"/><path d="M15.091 16.416a1 1 0 10-.174 1.993l1.992.174a1 1 0 00.175-1.992l-1.993-.175zm10.917 1.909a1 1 0 011.083-.909l1.992.175a1 1 0 11-.174 1.992l-1.992-.174a1 1 0 01-.91-1.084zm-10.917 6.678a1 1 0 00-.174 1.993l1.992.174a1 1 0 10.175-1.992l-1.993-.175zm10.917 2.322a1 1 0 011.083-.909l1.992.175a1 1 0 11-.174 1.992l-1.992-.174a1 1 0 01-.91-1.084z" fill="#203686"/><path fill-rule="evenodd" clip-rule="evenodd" d="M22 19a3 3 0 110 6 3 3 0 010-6zm1 3a1 1 0 10-2 0 1 1 0 002 0z" fill="#203686"/><path fill-rule="evenodd" clip-rule="evenodd" d="M15.244 13.241C12.931 13.043 11 14.876 11 17.168v7.991c0 2.126 1.655 3.871 3.748 4.047.858.073 1.91.167 3.154.289.223.022.719.123 1.436.289.47.109 1.001.237 1.558.371l.804.194c.84.2 1.697.401 2.436.552.707.145 1.4.265 1.86.267a94.085 94.085 0 003.22-.046c2.14-.065 3.784-1.834 3.784-3.941v-7.989c0-2.312-1.944-4.12-4.216-4.058a89.77 89.77 0 01-2.78.034c-.23 0-.733-.076-1.467-.226a77.185 77.185 0 01-2.371-.538l-.787-.19c-.564-.136-1.11-.268-1.59-.379-.68-.157-1.313-.293-1.691-.33-1.1-.108-2.051-.195-2.854-.264zM13 17.168c0-1.15.957-2.03 2.073-1.934.795.068 1.739.154 2.83.26.222.023.718.124 1.435.29.47.109 1.001.237 1.559.371l.803.194c.84.2 1.697.401 2.436.552.707.145 1.4.265 1.86.267.996.005 1.974-.011 2.842-.035 1.186-.032 2.162.911 2.162 2.06v7.988c0 1.061-.82 1.911-1.846 1.942-.94.03-2.035.05-3.15.045-.23 0-.733-.076-1.467-.226a77.185 77.185 0 01-2.371-.538l-.788-.19c-.562-.136-1.109-.268-1.59-.379-.68-.157-1.312-.293-1.69-.33a233.648 233.648 0 00-3.182-.292C13.834 27.123 13 26.221 13 25.16v-7.99z" fill="#203686"/><path d="M15.091 16.416a1 1 0 10-.174 1.993l1.992.174a1 1 0 00.175-1.992l-1.993-.175zm10.917 1.909a1 1 0 011.083-.909l1.992.175a1 1 0 11-.174 1.992l-1.992-.174a1 1 0 01-.91-1.084zm-10.917 6.678a1 1 0 00-.174 1.993l1.992.174a1 1 0 10.175-1.992l-1.993-.175zm10.917 2.322a1 1 0 011.083-.909l1.992.175a1 1 0 11-.174 1.992l-1.992-.174a1 1 0 01-.91-1.084z" stroke="#F4F7FB" stroke-width=".2"/><path clip-rule="evenodd" d="M22 19a3 3 0 110 6 3 3 0 010-6zm1 3a1 1 0 10-2 0 1 1 0 002 0z" stroke="#F4F7FB" stroke-width=".2"/><path clip-rule="evenodd" d="M15.244 13.241C12.931 13.043 11 14.876 11 17.168v7.991c0 2.126 1.655 3.871 3.748 4.047.858.073 1.91.167 3.154.289.223.022.719.123 1.436.289.47.109 1.001.237 1.558.371l.804.194c.84.2 1.697.401 2.436.552.707.145 1.4.265 1.86.267a94.085 94.085 0 003.22-.046c2.14-.065 3.784-1.834 3.784-3.941v-7.989c0-2.312-1.944-4.12-4.216-4.058a89.77 89.77 0 01-2.78.034c-.23 0-.733-.076-1.467-.226a77.185 77.185 0 01-2.371-.538l-.787-.19h0c-.564-.136-1.11-.268-1.59-.379-.68-.157-1.313-.293-1.691-.33-1.1-.108-2.051-.195-2.854-.264zM13 17.168c0-1.15.957-2.03 2.073-1.934.795.068 1.739.154 2.83.26.222.023.718.124 1.435.29.47.109 1.001.237 1.559.371l.803.194c.84.2 1.697.401 2.436.552.707.145 1.4.265 1.86.267.996.005 1.974-.011 2.842-.035 1.186-.032 2.162.911 2.162 2.06v7.988c0 1.061-.82 1.911-1.846 1.942-.94.03-2.035.05-3.15.045-.23 0-.733-.076-1.467-.226a77.185 77.185 0 01-2.371-.538l-.788-.19c-.562-.136-1.109-.268-1.59-.379-.68-.157-1.312-.293-1.69-.33a233.648 233.648 0 00-3.182-.292C13.834 27.123 13 26.221 13 25.16v-7.99z" stroke="#F4F7FB" stroke-width=".2"/></svg>
